X:1
T:mado kara mieru
T:mado kara mieru
%%score 1 2 3 4
L:1/8
Q:1/4=110
M:4/4
K:F
V:1 bass transpose=-12 nm="Contrabass" snm="Cb."
V:2 bass transpose=-12 nm="Contrabass" snm="Cb."
V:3 bass transpose=-12 nm="Contrabass" snm="Cb."
V:4 bass transpose=-12 nm="Contrabass" snm="Cb."
V:1
!p! !tenuto!D2 !tenuto!A2 !tenuto!A2 (GA) | FE D3 z D2 | (EF) G2 E2 C2 | (FE)DC D3 z | %4
 !tenuto!D2 !tenuto!A2 !tenuto!A2 (GA) | (FE) D3 z D2 | (EF) G2 E2 C2 | %7
!>(! !tenuto!D4 !tenuto!D4-!>)! |!ppp! D8 |!<(! D8-!<)! | D!p!EFD CA,EF | D8- | D6 C2 | D8- | %14
 DEFD CA,EF | D8- | D!<(!EFD CA,EF!<)! |!mp! D8- | DEFD CA,EF | G8- | GABG FDAB | G8- | G6 C2 | %23
 D8- | DEFD CA,EF |!>(! D8!>)! |!pp! z8 |!pp!!<(! D,8-!<)! | D,8 |!pp! F4 A,4 | D4 B,2 C2 | z8 | %32
 z!pp! AGA FE D2 |!pp! F,4!>(! A,4!>)! |!ppp! D8 |[K:D] z!p! F,E,F, D,C,B,, z | %36
 z F,E,F, D,C,B,, z | z F,E,F, D,C,B,, z | C,D,E, z C,2 A,,2 | z!<(! F,E,F, D,C,B,, z | %40
 z F,E,F, D,C,B,, z | z F,E,F, D,C,B,, z | C,D,E, z C,2!<)!!f! A,,2 | z8 | z2!pp! (B,2 D2) z2 | %45
 F8 | D4 F,2 A,2 | B,8 | z2 (B,2 D2) z2 | z8 | z2 z4 A,2 |!<(! B,8-!<)! |!f! B,CDB, A,F,(CD) | %53
 B,8- | B,4 z2 A,2 | B,8- | B,CDB, A,F,(CD) | B,8- | B,CDB, A,F,(CD) | B,8- | B,CDB, A,F,(CD) | %61
 E8- | EFGE DB,(FG) | E8- | E4 z2 A,2 | B,8- | B,CDB, A,F,(CD) |!>(! B,8-!>)! |!pp! B,8 | %69
 z!mf! F,E,F, D,C,B,, z | z F,E,F, D,C,B,, z | z F,E,F, D,C,B,, z | C,D,E, z C,2 A,,2 | %73
 z!<(! F,E,F, D,C,B,, z | z F,E,F, D,C,B,, z | z F,E,F, D,C,B,, z | C,D,E, z C,2!<)!!f! A,,2 | %77
!mp!!>(! B,,8-!>)! |!pp!!>(! B,,8-!>)! |!ppp! B,,8 | z8 | z8 | z8 | z8 | z8 | z8 | z8 | z8 | z8 | %89
 z8 | z8 |[K:Bb]!p!!<(! C,E,C,G, E,CG,B, | F, D2 F4 z!<)! |!mf! E,G,E,C G, E2 F | %94
 C!<(! c4 A,2!f! B,-!<)! | B,2 E,G, A, B,2 C- | C6 DF, |!<(! B,C D2 F2 F2- | F3 =E C2 G2-!<)! | %99
!ff! G4 |[K:F]!ff! !tenuto!D,2 !tenuto!A,2 !tenuto!A,2 (G,A,) | F,E, D,3 z z2 | %102
 !tenuto!D,2 !tenuto!A,2 !tenuto!A,2 (G,A,) | F,E, D,3 z z2 | %104
 !tenuto!D,2 !tenuto!A,2 !tenuto!A,2 (G,A,) | F,E, D,3 z z2 | %106
 !tenuto!D,2 !tenuto!A,2 !tenuto!A,2 (G,A,) | F,E, D,3 z z2 | %108
 !tenuto!D2 !tenuto!A2 !tenuto!A2 (GA) | FE D3 z z2 | !tenuto!D2 !tenuto!A2 !tenuto!A2 (GA) | %111
 FE D3 z z2 | !tenuto!D2 !tenuto!A2 !tenuto!A2 (GA) | FE D3 z z2 | %114
 !tenuto!D2 !tenuto!A2 !tenuto!A2 (GA) | FE D6 | z8 | z8 | z8 | %119
!p! !tenuto!D2 !tenuto!A2 !tenuto!A2 (GA) | FE D3 z D2 | (EF) G2 E2 C2 | (FE)DC D3 z | %123
 !tenuto!D2 !tenuto!A2 !tenuto!A2 (GA) | (FE) D3 z D2 | (EF) G2 E2 C2 |!>(! !tenuto!D8!>)! | %127
!pp! !tenuto!D8 | z8 | z8 | z8 | z8 |] %132
V:2
 z8 | z8 | z8 | z8 | z8 | z8 | z8 | z8 | z8 |"^pizz." z2!pp! .D2 z2 .D2 | z E,F,D, C,A,,F,,E,, | %11
 D, z z2 z4 | z8 |!p! D,2 z2 z4 | z8 | z8 | z"^arco."!<(! A,,3 G,,4!<)! |!p! !>!D,4 z A,,D,F, | %18
 !>!G,6 z2 |!>(! G,8!>)! |!p! z8 | z4"^tremolo\n" A4 |!<(! _A6!mp! z2!<)! |"^arco."!pp! D,8 | C,8 | %25
!p!!>(! G,,8-!>)! | G,,6!pp! z!p! z |!<(! !tenuto!D,2 !tenuto!A,2 !tenuto!A,2 (G,A,)!<)! | %28
 F,E, D,3 z!mp! D,2 | (E,F,) G,2 E,2 C,2 | (F,E,)D,C, D,3 z | %31
 !tenuto!D,2 !tenuto!A,2 !tenuto!A,2 G,A, | (F,E,) D,3 z D,2 |!>(! (E,F,) G,2 E,2 C,2!>)! | %34
!pp! D,8 |[K:D] z!p! F,E,F, D,C,B,, z | z F,E,F, D,C,B,, z | z F,E,F, D,C,B,, z | %38
 C,D,E, z C,2 A,,2 | z!<(! F,E,F, D,C,B,, z | z F,E,F, D,C,B,, z | z F,E,F, D,C,B,, z | %42
 C,D,E, z C,2!<)!!f! A,,2 | z8 | z2!pp! (B,2 D2) z2 | F,8 | D,4 F,2 A,2 | B,8 | z2 (B,2 D2) z2 | %49
 z8 | z2 z2 z2!pp! A2 |!<(! B8-!<)! | B!pp!cdB AF(cd) | B8- | B4 z2!p! A2 | B8- | BcdB AF(cd) | %57
 B8- | BcdB AF(cd) | B8- | BcdB AF(cd) | E8- | EFGE DB,(FG) | E8- | E4 z2 A2 | B8- | BcdB AF(cd) | %67
!>(! B8-!>)! |!pp! B8 | z!mf! F,E,F, D,C,B,, z | z F,E,F, D,C,B,, z | z F,E,F, D,C,B,, z | %72
 C,D,E, z C,2 A,,2 | z!<(! FEF DCB, z | z FEF DCB, z | z FEF DCB, z | CDE z C2!<)!!f! A,2 | %77
!mp!!>(! B,8-!>)! |!pp!!>(! B,8-!>)! |!ppp! B,8 |!<(! B,8-!<)! |!pp! B,8 | A,8 | B,4 G,2 A,2 | %84
 B,8- | B,8 | A,8 |!>(! G,8 | A,8 | B,8-!>)! |!ppp! B,8 |[K:Bb]!p!!<(! C,7 B,- | %92
 B,3 F,2 B,2 z!<)! |!mf! E,- E,4 E,2 F,- | F,8 | z8 |!f! B,CD F2 D2 z | z3 .B,, .C,.D,.F, z | z8 | %99
 z4 |[K:F]!ff! !tenuto!D,2 !tenuto!A,2 !tenuto!A,2 (G,A,) | F,E, D,3 z z2 | %102
 !tenuto!D,2 !tenuto!A,2 !tenuto!A,2 (G,A,) | F,E, D,3 z z2 | %104
 !tenuto!D,2 !tenuto!A,2 !tenuto!A,2 (G,A,) | F,E, D,3 z z2 | %106
 !tenuto!D,2 !tenuto!A,2 !tenuto!A,2 (G,A,) | F,E, D,3 z z2 | %108
 !tenuto!D,2 !tenuto!A,2 !tenuto!A,2 (G,A,) | F,E, D,3 z z2 | %110
 !tenuto!D,2 !tenuto!A,2 !tenuto!A,2 (G,A,) | F,E, D,3 z z2 | %112
 !tenuto!D,2 !tenuto!A,2 !tenuto!A,2 (G,A,) | F,E, D,3 z z2 | %114
 !tenuto!D,2 !tenuto!A,2 !tenuto!A,2 (G,A,) | F,E, D,6 | z8 |!ppp!!<(! D8- | D8!<)! |!pp! D8- | %120
 D8 | E4 A,4 | D4 B,2 C2 | D8- | D8 | E4 A,4 |!>(! D8 | E8 | D8-!>)! |!ppp! D8- |"_dim." D8- | %131
!pppp! D8 |] %132
V:3
 z8 | z8 | z8 | z8 | z8 | z8 | z8 | z8 | z8 | z8 | z8 | z!pp!"^pizz." EFD CA,F,E, | DA,DE F z .F2 | %13
 z CDF AEFA | d z z z z G,F,E, | D,A,DE F z z2 | z"^arco."!<(! A,3 G,4!<)! |!p! !>!^F,4 z A,DF | %18
 !>!G6 z2 |!>(! G,8!>)! |!p! z4"^pizz."!pp! G2 G2 | z4 G2 G2 | z4 G2 G2 | z8 | %24
!p!"^tremolo\n" D4 C4 | D8 | z8 | z8 | z"^arco."!pp! AGA FE D2 | z8 | z8 |!ppp!!<(! D8-!<)! | %32
!p!!>(! D8!>)! |!pp! F4!>(! A,4!>)! |!ppp! D8 |[K:D] z8 | z8 | z8 | z8 | z8 | z8 | z8 | z8 | %43
!mf! !tenuto!B,,2 !tenuto!F,2 !tenuto!F,2 (E,F,) | D,C, B,,3 z B,,2 | (C,D,) E,2 C,2 A,,2 | %46
 (D,C,)B,,A,, B,,3 z | !tenuto!B,,2 !tenuto!F,2 !tenuto!F,2 (E,F,) | (D,C,) B,,3 z B,,2 | %49
 (C,D,) E,2 C,2 A,,2 | B,,4 B,,2 z2 |!p! G,2 F,2 E,2 D,2 | C,4 z4 |!p! D2 C2 B,2 F,2 | %54
!>(! B,4!>)!!pp! z4 |!mf! B,,8- | B,, D,6- D, | B,,8 | z !>!B,,3 !>!D,4 | F,6 D,2 | F,4 A,4 | %61
!p! !>!A4!>(! E4-!>)! |!pp! E8 | z!ff! .A2 E !>!^B,2 !>!A,2 | z4 z2!mf! A,,2 | B,,8- | B,,8 | %67
!ff! A,2 _A,2 F,2 E,2 | z8 |!p! !^!B,,8 | !^!B,,8 | !^!B,,8 | !^!B,,8 | !^!B,,8 | !^!B,,8 | %75
 !^!B,,8 | !^!B,,8 | z8 | z8 | z8 | z8 | z8 | z4 z4 |!ppp! B,,4 G,,2 A,,2 | z8 | z8 | z4 z4 | z8 | %88
 z8 | z8 | z8 |[K:Bb] z8 | z8 | z8 | z4 z z z!mf!!<(! G,-!<)! | G,D- D3 CB,A,- | %96
 A,3!<(! F2 C2 B,- | B,3 F2 D2 C- | C!<)! G7- | G4 |[K:F] z z z2 z4 | z EFD CA,(EF) | D8 | %103
 z EFD CA,(EF) | D8 | z EFD CA,(EF) | D8 | z EFD CA,(EF) | D8 | z EFD CA,(EF) | D8 | %111
 z EFD CA,(EF) | D8 | z EFD CA,(EF) | D8 | z8 | z8 | z8 | z8 | z8 | z8 | z8 |!pp! D4 D2 C2 | z8 | %124
 z8 | z8 | z8 | z8 |"^pizz."!ppp! AGAF ED z2 | z8 | z8 |"_let ring" D8 |] %132
V:4
 z8 | z8 | z8 | z8 | z8 | z8 | z8 | z8 | z8 | z8 | z8 | z8 | z8 | %13
!pp! z!<(! A,G,!<)!!p!A,!>(! F,E,!>)! D,2- | D, z z2 z4 | z8 | z8 | z8 |!p! G,,8- | G,,8- | G,,8- | %21
 G,,8- | G,,6 z2 |"^pizz."!pp! DCF z z2 z z | EDG z z2 z z | z!p! AGA FED z | %26
 z!>(! A,G,A, F,E,D, z!>)! |!pp!"^arco."!<(! D8-!<)! | D8 |!p! F,4 A,,4 | D,4 A,,2 C,2 | %31
!ppp!!<(! D,8-!<)! |!p!!>(! D,8!>)! |!pp! F,4!>(! A,,4!>)! |!ppp! D,8 |[K:D]!p! B,,8 | A,,8 | %37
 G,,8 | B,,4 F,,4 |!<(! B,,8 | A,,8 | G,,8 | B,,4!<)!!mf! F,,4 |!p! B,,8- | B,,8 | C,4 F,,4 | %46
 D,4 G,,2 A,,2 | z8 | z8 | C,4 F,,4 | B,,6 z2 | z8 | z8 |!mf! D2 C2 B,2 F,2 |!>(! B,4!>)!!p! z4 | %55
 B,8- | B, D6- D | B,8 | z !>!B,3 !>!D4 | F6 D2 | F4 A4 | !>!A4!>(! E4-!>)! |!pp! E8 | z8 | %64
 z!f! .A,2 E, !>!^B,,2 !>!A,,2 |!mp! A,,4 E4 | F8 | z8 |!f!!>(! A,,2 _A,,2 F,,2!>)!!mp! E,,2 | %69
!mp! B,,8 | A,,8 | G,,8 | B,,4 F,,4 |!<(! B,,8 | A,,8 | G,,8 | B,,4!<)!!mf! F,,4 | z8 | z8 | z8 | %80
!p! !tenuto!B,,2 !tenuto!F,2 !tenuto!F,2 (E,F,) | D,C, B,,3 z B,,2 | (C,D,) E,2 C,2 A,,2 | %83
 (D,C,)B,,A,, B,,3 z | !tenuto!B,,2 !tenuto!F,2 !tenuto!F,2 E,F, | D,C, B,,3 z B,,2 | %86
 (C,D,) E,2 C,2 A,,2 |!>(! B,,8!>)! |!pp! B,,8 | z8 | z8 |[K:Bb] z8 | z8 | z8 | z8 | z8 | z8 | z8 | %98
 z8 | z4 |[K:F]!f! D,8- | D,8 | C,8 | B,,4 C,4 | D,8- | D,8 | C,8 | B,,4 C,4 | D,8- | D,8 | C,8 | %111
 B,,4 C,4 | D,8- | D,8 | C,8 | B,,4 C,4 | z8 | z8 | z8 | z8 | z8 | z8 | z8 | z8 | z8 | z8 | z8 | %127
 z8 | z8 |"^pizz."!ppp! A,G,A,F, E,D, z2 | z8 |"_let ring" D,8 |] %132

